svgs/sharp-solid/comment-quote.svg

<svg xmlns="http://www.w3.org/2000/svg" viewBox="0 0 512 512"><!--! Font Awesome Pro 6.6.0 by @fontawesome - https://fontawesome.com License - https://fontawesome.com/license (Commercial License) Copyright 2024 Fonticons, Inc. --><path d="M512 240c0 114.9-114.6 208-256 208c-31.5 0-61.7-4.6-89.6-13.1L16 480 56.9 370.8C21.3 335.1 0 289.6 0 240C0 125.1 114.6 32 256 32s256 93.1 256 208zM240 144l-112 0 0 112 64 0 0 32-24 0-24 0 0 48 24 0 48 0 24 0 0-24 0-56 0-48 0-24 0-40zm144 0l-112 0 0 112 64 0 0 32-24 0-24 0 0 48 24 0 48 0 24 0 0-24 0-56 0-48 0-24 0-40z"/></svg>

<svg xmlns="http://www.w3.org/2000/svg" viewBox="0 0 512 512"><!--! Font Awesome Pro 6.4.0 by @fontawesome - https://fontawesome.com License - https://fontawesome.com/license (Commercial License) Copyright 2023 Fonticons, Inc. --><path d="M512 240c0 114.9-114.6 208-256 208c-31.5 0-61.7-4.6-89.6-13.1L16 480 56.9 370.8C21.3 335.1 0 289.6 0 240C0 125.1 114.6 32 256 32s256 93.1 256 208zM240 144H128V256h64v32H168 144v48h24 48 24V312 256 208 184 144zm144 0H272V256h64v32H312 288v48h24 48 24V312 256 208 184 144z"/></svg>
